src/images/icons/social/instagram.svg

<svg width="38" height="36" viewBox="0 0 38 36" fill="none" xmlns="http://www.w3.org/2000/svg">
<path fill-rule="evenodd" clip-rule="evenodd" d="M25.3332 3H12.6665C7.4198 3 3.1665 7.02944 3.1665 12V24C3.1665 28.9706 7.4198 33 12.6665 33H25.3332C30.5799 33 34.8332 28.9706 34.8332 24V12C34.8332 7.02944 30.5799 3 25.3332 3ZM6.33317 12C6.33317 8.68629 9.1687 6 12.6665 6H25.3332C28.831 6 31.6665 8.68629 31.6665 12V24C31.6665 27.3137 28.831 30 25.3332 30H12.6665C9.1687 30 6.33317 27.3137 6.33317 24V12ZM18.9998 25.5C14.6276 25.5 11.0832 22.1421 11.0832 18C11.0832 13.8579 14.6276 10.5 18.9998 10.5C23.3721 10.5 26.9165 13.8579 26.9165 18C26.9165 22.1421 23.3721 25.5 18.9998 25.5ZM18.9998 22.5C21.6232 22.5 23.7498 20.4853 23.7498 18C23.7498 15.5147 21.6232 13.5 18.9998 13.5C16.3765 13.5 14.2498 15.5147 14.2498 18C14.2498 20.4853 16.3765 22.5 18.9998 22.5ZM28.4998 10.5C28.4998 11.3284 27.791 12 26.9165 12C26.0421 12 25.3332 11.3284 25.3332 10.5C25.3332 9.67157 26.0421 9 26.9165 9C27.791 9 28.4998 9.67157 28.4998 10.5Z" fill="black"/>
</svg>

<?xml version="1.0" encoding="utf-8"?>
<!-- Generator: Adobe Illustrator 24.1.1, SVG Export Plug-In . SVG Version: 6.00 Build 0)  -->
<svg version="1.1" id="insta" xmlns="http://www.w3.org/2000/svg" xmlns:xlink="http://www.w3.org/1999/xlink" x="0px" y="0px"
	 viewBox="0 0 38 36" style="enable-background:new 0 0 38 36;" xml:space="preserve">
<style type="text/css">
	.stin0{fill-rule:evenodd;clip-rule:evenodd;}
</style>
<path class="stin0" d="M25.3,3H12.7c-5.2,0-9.5,4-9.5,9v12c0,5,4.3,9,9.5,9h12.7c5.2,0,9.5-4,9.5-9V12C34.8,7,30.6,3,25.3,3z M6.3,12
	c0-3.3,2.8-6,6.3-6h12.7c3.5,0,6.3,2.7,6.3,6v12c0,3.3-2.8,6-6.3,6H12.7c-3.5,0-6.3-2.7-6.3-6V12z M19,25.5c-4.4,0-7.9-3.4-7.9-7.5
	s3.5-7.5,7.9-7.5c4.4,0,7.9,3.4,7.9,7.5S23.4,25.5,19,25.5z M19,22.5c2.6,0,4.8-2,4.8-4.5s-2.1-4.5-4.8-4.5c-2.6,0-4.8,2-4.8,4.5
	S16.4,22.5,19,22.5z M28.5,10.5c0,0.8-0.7,1.5-1.6,1.5c-0.9,0-1.6-0.7-1.6-1.5C25.3,9.7,26,9,26.9,9C27.8,9,28.5,9.7,28.5,10.5z"/>
</svg>
